X: 17021
T: Heart Of The Sea, The
R: jig
M: 6/8
K: Gmajor
|:D|GFD GGG|BAG GBd|edB GAB|ABA AGD|
GFD GGG|BAG GBd|edB GAB|AGG G2:|
|:e|fg2 GGG|gfe GGG|(ef)<g (ed)<B|GAB AAG|
EDF GGG|BAG GBd|edB GAB|AGG G2:|

